X:72
C:Page 36
T:Mrs Spiers. MBe.72
S:Matthew Betham MS, Towcett Cumbria, 1815
O:England;Cumbria;Towcett
Z:VMP – Hugh Taylor, 2012
M:6/8
L:1/8
Q:3/8=100
R:.Jig
N:Key signature written as “D” but I’ve changed it to G as it sounds better.
K:G
d/c/|B2 B cBc|d2 Bg2 e|dBG GFG|AFD D2 d/c/|
B2 B cBc|d2 Bg2 e|d2 B GAB|G3-G2:|
|:F/G/|A2 A ABc|d2 B G2 G/F/|E2 E EFG|A2 F DFG|
A2 A ABc|d2 B g2 e|dBG AGA|G3-G2:|

